X:1
T:Is Thy Heart Right with God?
T:Elisha Albright Hoffman, 1899
T:Is Thy Heart Right with God?
T:Public Domain
T:Public Domain
C:Elisha Albright Hoffman, 1899
Z:Public Domain
%%score ( 1 2 ) ( 3 4 )
L:1/8
M:6/8
K:Ab
V:1 treble 
V:2 treble 
V:3 bass 
V:4 bass 
V:1
 [CE][CE][CE] [A,C][B,D][CE] | [DF][DF][DF] [FA]3 | [Ec][Ec][CA] [DB]2 [Ec] | [CA]6 | %4
w: 1.~Have thy af- fect- ions been|nailed to the cross?|Is thy heart right with|God?|
w: 2.~Hast thou do- min- ion o’er|self and o’er sin?|Is thy heart right with|God?|
w: 3.~Is there no more con- dem-|na- tion for sin?|Is thy heart right with|God?|
w: 4.~Are all thy pow’rs un- der|Je- sus’ con- trol?|Is thy heart right with|God?|
 [CE][CE][CE] [A,C][B,D][CE] | [DF][DF][DF] [FA]3 | [Ec][Ec][CA] [DB]2 [Ec] | [CA]6 || %8
w: Dost thou count all things for|Je- sus but loss?|Is thy heart right with|God?|
w: O- ver all e- vil with-|out and with- in?|Is thy heart right with|God?|
w: Does Je- sus rule in the|tem- ple with- in?|Is thy heart right with|God?|
w: Does He each mo- ment a-|bide in thy soul?|Is thy heart right with|God?|
"^Refrain" [CE][CE][CE] [DF]2 [DF] | [CE]6 | [CA][CA][CA] [Ec]2 [EA] | [EB]6 | %12
w: ||||
w: Is thy heart right with|God,|Washed in the crim- son|flood,|
w: ||||
w: ||||
 [Ec][Ec][Ec] [EA] [EA]2 | [DF][DF][DF] [CE] [CE]2 | [CA][CA][CA] [DB]2 [DB] | (C2 D C3) |] %16
w: ||||
w: Cleansed and made ho- ly,|hum- ble and low- ly,|Right in the sight of|God? * *|
w: ||||
w: ||||
V:2
 x6 | x6 | x6 | x6 | x6 | x6 | x6 | x6 || x6 | x6 | x6 | x6 | x6 | x6 | x6 | A6 |] %16
V:3
 [A,,A,][A,,A,][A,,A,] [A,,E,][A,,E,][A,,A,] | [D,A,][D,A,][D,A,] [D,A,]3 | %2
 [E,A,][E,A,][E,A,] [E,G,]2 [E,G,] | [A,,E,]6 | [A,,A,][A,,A,][A,,A,] [A,,E,][A,,E,][A,,A,] | %5
 [D,A,][D,A,][D,A,] [D,A,]3 | [E,A,][E,A,][E,A,] [E,A,]2 [E,G,] | [A,,E,]6 || %8
 [A,,A,][A,,A,][A,,A,] [D,A,]2 [D,A,] | [A,,A,]6 | [A,,E,][A,,E,][A,,E,] [A,,A,]2 [C,A,] | %11
 [E,G,]6 | [A,,A,][A,,A,][A,,A,] [C,A,] [C,A,]2 | [D,A,][D,A,][D,A,] [A,,A,] [A,,A,]2 | %14
 [A,,E,][A,,E,][A,,A,] [E,G,]2 [E,G,] | (A,2 F, E,3) |] %16
V:4
 x6 | x6 | x6 | x6 | x6 | x6 | x6 | x6 || x6 | x6 | x6 | x6 | x6 | x6 | x6 | A,,6 |] %16

